X:1
T:See what a maze of error - Kirbye
T:James Gibb editions
T:#
%%score { 1 | 2 } 3 4 5
L:1/8
Q:1/4=120
M:2/2
K:F
V:1 treble nm="Soprano 1" snm="S"
V:2 treble 
V:3 treble nm="Alto" snm="A"
V:4 treble-8 nm="Tenor" snm="T"
V:5 bass nm="Bass" snm="B"
V:1
"^See what a maze of error""^See what a maze of error - Kirbye"!f! d6 dd | _e2 c2 d4 | d4 G4- | %3
w: See what a|maze of er-|ror, see|
 G2 AB A2 G2 | (^F2 G4"^George Kirbye\n(1570-1634)" F2) |[M:2/2] G8 | z2!p! B2 _e3 d | c2 B2 c4 | %8
w: * what a maze of|er\- * *|ror,|and la- by-|rinth of ter-|
 d4 z2"^cresc." G2 | B3 A G2 ^F2 | G4 G2 B2 | (A2 B4 A2) | B8 | z2!f! A2 A2 A2 | A8 | %15
w: ror, and|la- by- rinth of|ter- ror, of|ter\- * *|ror,|my love hath|trac-|
 A2!mp! d2 d2 d2 | (cBAG FGA=B | ^c2 d4 c2) | d8 | z2!f! B2 B2 B2 | (AGFE D2) d2 |"^dim." d8 | %22
w: ed, my love hath|trac\- * * * * * * *||ed,|my love hath|trac'd, * * * * hath|trac-|
!p! d8 | z8 | z8 | _e8- | e4 d4 | c8 | z8 | f8- | f4 _e4 | d8 | =e4 c4- | c4 B4 | A4 A4- | A4 z4 | %36
w: ed.|||wretch\-|* ed|I,||whom|* love|pain-|eth, whom|* love|pain- eth,||
 z8 | z8 | z8 | z8 | z2!p! d2 _e2 d2 | c2 B2 _e4 | d4 z2 c2 | d2 _e2 f4- | f2 _e2 d4 | c8 | %46
w: ||||and true faith|on- ly~~ gain-|eth, hope|ut- ter- ly|* dis- grac-|ed,|
 z4!mf! d4 | d8 | d4 z2!p! d2 | _e2 c2 d4 | z4 z2 B2 | G2 A2 B2 G2 | ^F4 G2 d2 | _e2 c2 d2 e2 | %54
w: dis-|grac-|ed, and|by dis- dain,|and|by dis- dain de-|fac- ed, and|by dis- dain de-|
 d8 | d4 z2!f! _B2 | G2 A2 B4 | z4 z2 d2 | _e2 c2 d2 c2 | A4 =B4 | z8 | %61
w: fac-|ed, and|by dis- dain,|and|by dis- dain de-|fac- ed,||
[Q:1/4=119] z2[Q:1/4=117] d2[Q:1/4=116] c3[Q:1/4=114] B |[Q:1/4=113] A4[Q:1/4=110] G4 | %63
w: and by dis-|dain de-|
[Q:1/4=106] A8 |[Q:1/4=104] !fermata!=B8 |] %65
w: fac-|ed.|
V:2
!f! G6 AB | c3 G A4 | =B4 d4- | d2 dd _e2 c2 | d8 |[M:2/2] d4 z2!p! B2 | G3 F G2 B2 | (A2 B4 A2) | %8
w: See what a|maze of er-|ror, see|* what a maze of|er-|ror, and|la- by- rinth of|ter\- * *|
 B8 | z8 | z2!mf! B2 _e3 d | c2 B2 c4 | d8 | z8 | z8 | z2!mp! =f2 f2 f2 | (edcB ABcd | %17
w: ror,||and la- by-|rinth of ter-|ror,|||my love hath|trac\- * * * * * * *|
"^\" e2 f2 e4) | d4 z4 | z2!f! d2 d2 d2 | (cBAG FEDE |"^dim." ^F2 G4 F2) |!p! G8 | z8 | B8- | %25
w: |ed,|my love hath|trac\- * * * * * * *||ed.||wretch\-|
 B4 A4 | G8 | A8- | A4 G4 | F8 | B4 G4 | G8 | G4 A4- | A4 G4 | E4 ^F4 | z2!mf! A2 B2 A2 | %36
w: * ed|I,|wretch\-|* ed|I,|whom love|pain-|eth, whom|* love|pain- eth,|and true faith|
 G2 F2 B4 | A4 z2 G2 | A2 B2 c4- | c2 B2 A4 | =B2!p! G2 _B2 A2 | G2 B4 A2 | B2 F2 G2 A2 | %43
w: on- ly gain-|eth, hope|ut- ter- ly|* dis- grac-|ed, and true faith|on- ly gain-|eth, hope ut- ter-|
 B2 c2 (d3 _e | dc c4 =B2) | c8 | z2!mf! G2 B2 c2 | d2 B2 A4 | =B4 z2!p! _B2 | G2 A2 B4 | %50
w: ly dis grac\- *||ed,|hope ut- ter-|ly dis- grac-|ed, and|by dis- dain,|
 z4 z2 d2 | _e2 c2 d2 c2 | A4 =B2 _B2 | G2 A2 F2 c2 | (A2 G2 A4) | =B4 z2!f! d2 | _e2 c2 d4 | %57
w: and|by dis- dain de-|fac- ed, and|by dis- dain de-|fac\- * *|ed, and|by dis- dain,|
 z4 z2 B2 | G2 A2 B2 G2 | ^F4 G4 | z2 d2 _e2 c2 | d4 _e4 | d8- | d8 | !fermata!d8 |] %65
w: and|by dis- dain de-|fac- ed,|and by dis-|dain de-|fac\-||ed.|
V:3
!f! B6 AG | A2 G2 ^F4 | G4 _B4- | B2 AG c4- | c2 B2 A4 |[M:2/2] G4 z2!p! D2 | _E3 D C2 B,2 | F8 | %8
w: See what a|maze of er-|ror, see|* what a maze|* of er-|ror, and|la- by- rinth of|ter-|
 B,4 z2"^cresc." D2 | D3 C B,2 A,2 | G,4 G,2 D2 | F8 | F8 | z2!f! F2 F2 F2 | (E2 D2 E4) | %15
w: ror, and|la- by- rinth of|ter- ror, of|ter-|ror,|my love hath|trac\- * *|
 ^F2!mp! D2 D2 D2 | A8- | A8 | A2!f! B2 B2 B2 | (AGFE DEFG | A6) G2 | z2"^dim." D2 D4 |!p! D4 D4- | %23
w: ed, my love hath|trac\-||ed, my love hath|trac\- * * * * * * *|* ed,|hath trac\-|ed. wretch\-|
 D4 C4 | B,8 | z8 | z8 | z8 | F8- | F4 _E4 | D4 C4- | C4 =B,4 | C8 | C4 z4 | z8 | z2!mf! F2 F2 E2 | %36
w: * ed|I,||||wretch\-|* ed|I, whom|* love|pain-|eth,||and true faith|
 D2 F4 E2 | F2 C2 D2 E2 | F2 G2 (A3 B | AG G4 ^F2) | G4 z2!p! D2 | _E2 F2 E2 C2 | %42
w: on- ly gain-|eth, hope ut- ter-|ly dis- grac\- *||ed, and|true faith on- ly|
 F4 !courtesy!=E2 F2 | D2 C2 B,4- | B,2 C2 G4 | C8 | z2!mf! C2 D2 E2 | ^F2 G4 F2 | G4 z2!p! G2 | %49
w: gain- eth, hope|ut- ter- ly|* dis- grac-|ed,|hope ut- ter-|ly dis- grac-|ed, and|
 _E2 F2 B,2 D2 | _E2 C2 D4 | z8 | z8 | z2 F2 D2 G2 | ^F2 G4 F2 | G4 z2!f! G2 | _E2 F2 B,2 D2 | %57
w: by dis- dain, and|by dis- dain,|||and by dis-|dain de- fac-|ed, and|by dis- dain, and|
 _E2 C2 D2 B,2 | _E2 F2 B,2 C2 | D4 G,4 | z4 z2 F2 | F2 D2 G4 | ^F4 (G4- | G4 ^F4) | !fermata!G8 |] %65
w: by dis- dain, and|by dis- dain de-|fac- ed,|and|by dis- dain|de- fac\-||ed.|
V:4
!f! g6 ^fg | c2 _e2 d4 | G4 d4- | d2 dd c2 G2 | d8 |[M:2/2][K:treble-8] =B4 z4 | z8 | z8 | %8
w: See what a|maze of er-|ror, see|* what a maze of|er-|ror,|||
 z2"^cresc."!p! G2 B3 A | G2 (^F2 G2) d2 | B4 c2 f2- | f_e d2 c2 c2 | B2!f! d2 d2 d2 | (cBAG FGAB | %14
w: and la- by-|rinth of * ter-|ror and la\-|* by- rinth of ter-|ror, my love hath|trac\- * * * * * * *|
 ^c2 d4 c2) | d8 | z8 | z4!f! A4 | d6 d2 | f8 | f4 z2 B2 |"^dim." A2 G2 A4 |!p! =B4 _B4- | B4 A4 | %24
w: |ed,||my|love hath|trac-|ed, my|love hath trac\-|ed. wretch\-|* ed|
 G8 | c8- | c4 B4 | A4 c4- | c4 c4 | d8 | d4 z4 | z8 | z4 f4- | f4 d4 | ^c4 d4 | z2!mf! d2 d2 c2 | %36
w: I,|wretch\-|* ed|I, whom|* love|pain-|eth,||whom|* love|pain- eth,|and true faith|
 B2 A2 G4 | F4 z2 c2 | A2 G2 F4- | F2 G2 d4 | G4 z4 | z8 | z8 | z8 | z4!mf! G4 | c2 d2 _e4- | %46
w: on- ly gain-|eth, hope|ut- ter- ly|* dis- grac-|ed,||||hope|ut- ter- ly|
 e4 d4 | d8 | d8 | z4 z2!p! B2 | G2 A2 B2 B2 | _e2 f2 B2 c2 | d4 G4 | z2 A2 B2 G2 | d2 B2 A4 | G8 | %56
w: * dis-|grac-|ed,|and|by dis- dain, and|by dis- dain de-|fac- ed,|and by dis-|dain de- fac-|ed,|
 z4 z2!f! B2 | G2 A2 B4 | z8 | z8 | z2 B2 G2 A2 | B4 G4 | d8- | d8 | !fermata!d8 |] %65
w: and|by dis- dain,|||and by dis-|dain de-|fac\-||ed.|
V:5
 z8 | z8 | z4!f! G,4- | G,2 ^F,G, C,2 _E,2 | D,8 |[M:2/2]!>(! G,8!>)! | z8 | z8 | z8 | %9
w: ||See|* what a maze of|er-|ror,||||
 z4 z2"^cresc."!p! D,2 | _E,3 D, C,2 B,,2 | F,8 | B,,2!f! B,2 B,2 B,2 | (A,G,F,E, D,E,F,G, | A,8) | %15
w: and|la- by- rinth of|ter-|ror, my love hath|trac\- * * * * * * *||
 D,8 | z8 | z8 | z2!f! G,2 G,2 G,2 | (F,E,D,C, B,,C,D,E, | F,6 G,2 |"^dim." D,8) |!p! G,8 | _E,8- | %24
w: ed,|||my love hath|trac\- * * * * * * *|||ed.|wretch\-|
 E,4 D,4 | C,8 | z8 | F,8- | F,4 _E,4 | D,8 | B,,4 C,4 | G,8 | C,4 F,4- | F,4 G,4 | A,4 D,4- | %35
w: * ed|I,||wretch\-|* ed|I,|whom love|pain-|eth, whom\-|* love|pain- eth,|
 D,4 z4 | z8 | z8 | z8 | z8 | z2!p! G,2 G,2 F,2 | _E,2 D,2 C,4 | B,,4 z4 | z8 | z4 z2!mf! G,2 | %45
w: |||||and true faith|on- ly gain-|eth,||hope|
 _E,2 D,2 C,4- | C,4 G,4 | D,8 | G,8 | z4 z2!p! G,2 | _E,2 F,2 B,,4 | z8 | z4 z2 G,2 | %53
w: ut- ter- ly|* dis-|grac-|ed,|and|by dis- dain,||and|
 _E,2 F,2 B,,2 C,2 | D,8 | G,8 | z4 z2!f! G,2 | _E,2 F,2 B,,4 | z8 | z8 | z2 G,2 _E,2 F,2 | %61
w: by dis- dain de-|fac-|ed,|and|by dis- dain,|||and by dis-|
 B,,4 C,4 | D,8- | D,8 | !fermata!G,8 |] %65
w: dain de-|fac\-||ed.|

